icon-themes/sifr_svg/cmd/lc_showfmexplorer.svg

<svg viewBox="0 0 24 24" xmlns="http://www.w3.org/2000/svg"><path d="m2 3v19h9.136719c-.138144-.342561-.20485-.776696-.046875-1.253906v-.001953l.248047-.744141h-1.337891v-3h2.335938l.144531-.431641c.019441-.192043.043042-.383626.085937-.568359h-2.566406v-3h4v.615234c.703049-.626304 1.590585-1.039468 2.572266-1.136718l1.439453-.478516h-3.011719v-3h5v2.337891l.724609-.240235c.0023-.0009.005513-.00113.007813-.001953.161752-.05704.340056-.095703.548828-.095703.258691 0 .500312.065861.71875.171875v-8.171875zm2 2h5v3h-5zm6 0h4v3h-4zm5 0h5v3h-5zm-11 4h5v3h-5zm6 0h4v3h-4zm11.28125 3c-.07438 0-.149636.014393-.21875.039062l-4.226562 1.40625c-1.797075.090641-3.293984 1.594688-3.388672 3.388672l-1.408204 4.226563c-.18397.555736.347607 1.086335.363282.902344l4.765625-1.410157c1.793984-.08801 3.298041-1.589436 3.388672-3.386718l1.408203-4.22461c.154245-.464593-.194132-.941406-.683594-.941406zm-17.28125 1h5v3h-5zm13.001953 2c1.104569 0 2 .895431 2 2s-.895431 2-2 2-2-.895431-2-2 .895431-2 2-2zm4.998047 1-.476562 1.429688c-.213595 2.156736-1.949294 3.886686-4.105469 4.091796l-1.617188.478516h6.199219zm-18 1h5v3h-5z" fill="#555753"/></svg>

<svg xmlns="http://www.w3.org/2000/svg" viewBox="0 0 24 24">
  <path
     style="fill:#555753"
     d="M 2 3 L 2 22 L 11.136719 22 C 10.998575 21.657439 10.931869 21.223304 11.089844 20.746094 L 11.089844 20.744141 L 11.337891 20 L 10 20 L 10 17 L 12.335938 17 L 12.480469 16.568359 C 12.49991 16.376316 12.523511 16.184733 12.566406 16 L 10 16 L 10 13 L 14 13 L 14 13.615234 C 14.703049 12.98893 15.590585 12.575766 16.572266 12.478516 L 18.011719 12 L 15 12 L 15 9 L 20 9 L 20 11.337891 L 20.724609 11.097656 C 20.726909 11.096756 20.730122 11.096526 20.732422 11.095703 C 20.894174 11.038663 21.072478 11 21.28125 11 C 21.539941 11 21.781562 11.065861 22 11.171875 L 22 3 L 2 3 z M 4 5 L 9 5 L 9 8 L 4 8 L 4 5 z M 10 5 L 14 5 L 14 8 L 10 8 L 10 5 z M 15 5 L 20 5 L 20 8 L 15 8 L 15 5 z M 4 9 L 9 9 L 9 12 L 4 12 L 4 9 z M 10 9 L 14 9 L 14 12 L 10 12 L 10 9 z M 21.28125 12 C 21.20687 12 21.131614 12.014393 21.0625 12.039062 L 16.835938 13.445312 C 15.038863 13.535953 13.541954 15.04 13.447266 16.833984 L 12.039062 21.060547 C 11.855092 21.616283 12.386669 22.146882 12.402344 21.962891 L 17.167969 20.552734 C 18.961953 20.464724 20.46601 18.963298 20.556641 17.166016 L 21.964844 12.941406 C 22.119089 12.476813 21.770712 12 21.28125 12 z M 4 13 L 9 13 L 9 16 L 4 16 L 4 13 z M 17.001953 15 C 18.106522 15 19.001953 15.895431 19.001953 17 C 19.001953 18.104569 18.106522 19 17.001953 19 C 15.897384 19 15.001953 18.104569 15.001953 17 C 15.001953 15.895431 15.897384 15 17.001953 15 z M 22 16 L 21.523438 17.429688 C 21.309843 19.586424 19.574144 21.316374 17.417969 21.521484 L 15.800781 22 L 22 22 L 22 16 z M 4 17 L 9 17 L 9 20 L 4 20 L 4 17 z "
     />
</svg>
